X:1
T:Gillan's reel
C:Reel, P. Milne, Ecosse, fichier abc : Bernard Loffet
L:1/8
Q:340
M:4/4
K:C
G, |: [C2C,,2] [EC,]C [D2G,,2] [FG,]D | [E2E,,2] [GE,]E [FD,,]D [B,D,]D | [C2C,,2] [EC,]G [AF,,]B [cF,]A | \
 [GC,,]F [EC,]D [CG,,]B, [A,G,]G, | [CC,,]G, [CC,]E [DG,,]G, [DG,]F | [EE,,]C [EE,]G [FD,,]D [B,D,]D | \
 [C2C,,2] [EC,]G [AF,,]B [cF,]A |1 [GG,,]F [EG,]D [C2C,,2] C,G, :|2 [GG,,]F [EG,]D [C2C,,2] C,B | \
|: [c2A,,2] [AA,]c [B2E,,2] [GE,]B | [A2F,,2] [FF,]A [GC,,]E [DC,]C | [c2A,,2] [AA,]c [BD,,]c [dD,]c | \
 [BD,,]A [GG,]^F [G2G,,2] [AG,]B | [cA,,]B [AA,]c [BE,,]A [GE,]B | [AF,,]G [FF,]A [GC,,]F [EC,]D | \
 [C2C,,2] [EC,]G [AF,,]B [cF,]A |1 [GG,,]E [FG,]D [CG,,]B, [A,G,]G, :|2 [GG,,]E [FG,]D [CG,,]B, [A,2G,2] | \
W:Created with TablEdit http://www.tabledit.com/ by Bernard Loffet
